svgs/sharp-solid/location-plus.svg

<svg xmlns="http://www.w3.org/2000/svg" viewBox="0 0 384 512"><!--! Font Awesome Pro 6.6.0 by @fontawesome - https://fontawesome.com License - https://fontawesome.com/license (Commercial License) Copyright 2024 Fonticons, Inc. --><path d="M192 512s192-208 192-320C384 86 298 0 192 0S0 86 0 192C0 304 192 512 192 512zM168 304l0-24 0-64-64 0-24 0 0-48 24 0 64 0 0-64 0-24 48 0 0 24 0 64 64 0 24 0 0 48-24 0-64 0 0 64 0 24-48 0z"/></svg>

<svg xmlns="http://www.w3.org/2000/svg" viewBox="0 0 384 512"><!--! Font Awesome Pro 6.4.2 by @fontawesome - https://fontawesome.com License - https://fontawesome.com/license (Commercial License) Copyright 2023 Fonticons, Inc. --><path d="M192 512s192-208 192-320C384 86 298 0 192 0S0 86 0 192C0 304 192 512 192 512zM168 304V280 216H104 80V168h24 64V104 80h48l0 24v64h64 24v48H280 216v64 24H168z"/></svg>
